src/icons/remove.icon.svg

<svg width="24px" height="24px" viewBox="0 0 24 24" version="1.1" xmlns="http://www.w3.org/2000/svg" xmlns:xlink="http://www.w3.org/1999/xlink">
    <!-- Generator: Sketch 49.2 (51160) - http://www.bohemiancoding.com/sketch -->
    <title>IconRemove</title>
    <desc>Created with Sketch.</desc>
    <defs></defs>
    <g id="Page-1" stroke="none" stroke-width="1" fill="none" fill-rule="evenodd">
        <g id="IconRemove">
            <path d="M6.33918129,17.6608187 C7.92983251,19.2202807 9.81675322,20 12,20 C14.1832468,20 16.0623703,19.2124835 17.6374269,17.6374269 C19.2124835,16.0623703 20,14.1832468 20,12 C20,9.81675322 19.2124835,7.93762971 17.6374269,6.3625731 C16.0623703,4.78751649 14.1832468,4 12,4 C9.81675322,4 7.93762971,4.78751649 6.3625731,6.3625731 C4.78751649,7.93762971 4,9.81675322 4,12 C4,14.1832468 4.7797193,16.0701675 6.33918129,17.6608187 Z M4.91079812,4.95774648 C6.88263897,2.98590563 9.24568263,2 12,2 C14.7543174,2 17.1095364,2.97808099 19.0657277,4.9342723 C21.021919,6.89046362 22,9.24568263 22,12 C22,14.7543174 21.021919,17.1095364 19.0657277,19.0657277 C17.1095364,21.021919 14.7543174,22 12,22 C9.24568263,22 6.89046362,21.021919 4.9342723,19.0657277 C2.97808099,17.1095364 2,14.7543174 2,12 C2,9.24568263 2.97025634,6.89828826 4.91079812,4.95774648 Z M7,11 L17,11 L17,13 L7,13 L7,11 Z" id="remove_circle_outlin" fill="currentColor"></path>
        </g>
    </g>
</svg>

<svg xmlns="http://www.w3.org/2000/svg" viewBox="0 0 24 24"><path d="M6.34 17.66C7.93 19.22 9.816 20 12 20c2.183 0 4.062-.788 5.637-2.363C19.212 16.062 20 14.183 20 12c0-2.183-.788-4.062-2.363-5.637C16.062 4.788 14.183 4 12 4c-2.183 0-4.062.788-5.637 2.363C4.788 7.938 4 9.817 4 12c0 2.183.78 4.07 2.34 5.66zM4.91 4.959C6.884 2.986 9.247 2 12 2c2.754 0 5.11.978 7.066 2.934C21.022 6.89 22 9.246 22 12c0 2.754-.978 5.11-2.934 7.066C17.11 21.022 14.754 22 12 22c-2.754 0-5.11-.978-7.066-2.934C2.978 17.11 2 14.754 2 12c0-2.754.97-5.102 2.91-7.042zM7 11h10v2H7v-2z" fill="currentColor" fill-rule="evenodd"/></svg>
